X:1
T: Seafield Strathspey
C:C. Sherrit
R:Strathspey
Q: 128
K:G
M:4/4
L:1/16
G4|:B3A Bd3 D4 D3G|E3D EG3 D4 B4|c3B ce3 d3B AG3|EA3 A3G ((3F2E2D2) ((3=c2B2A2)|
B3A Bd3 D4 D3G|E3D EG3 D4|B4|((3c2d2e2) ((3g2f2e2) dB3 A3G|1((3F2E2D2) ((3c2B2A2) G4 D4:|2((3F2E2D2) ((3c2B2A2) G4 c4|
|:Bd3 ((3d2e2f2) g4 g3f|e3d eg3 d4 d3B|c3e g3c B3d g3B|c3B A3G ((3F2E2D2) ((3c2B2A2)|
Bd3 ((3d2e2f2) g4 g3=f|e3d eg3 d4 d3B|((3c2d2e2) ((3g2f2e2) dB3 A3G|1((3F2E2D2) ((3c2B2A2) G4 c4:|2((3F2E2D2) ((3c2B2A2) G4||
